X:1
T:Title
%%score { ( 1 3 ) | ( 2 4 ) }
L:1/8
M:6/8
K:F
V:1 bass nm="Grand Piano"
V:3 bass 
V:2 bass 
V:4 bass 
V:1
 z6[Q:1/4=81] | .C3 z D[K:treble]F | E2 G D2 F/F/ | E>FG D2[K:bass] E | %4
[M:5/8] [F,A,C]-[F,A,C]- [F,A,C]3 |[M:1/8] z |[M:3/4] C2 z[K:treble] [A,F] GA | D2 G B2 B | %8
 A>G F G2 C |[M:5/8] [A,F]-[A,F]- [A,F]3 |[M:1/8] c |[M:3/4] c>G AB AG | A2 F C2 C | %13
 D>E F .[G,B,DG]3 |[M:5/8] [^CA]-[CA]- [CA]3 |[M:1/8] z |[M:3/4][K:bass] C2 z2 G[K:treble]A | %17
 D2 G .[DB]3 | [CA]>G F G2 C | [A,CF]6 |[M:4/4][Q:1/4=90] A<A C>C D2 [DB]2 | %21
 A2- [DA-][FA-] [CA]2 z2 | c<c [CFA]>[B,EG] [A,F]2 .[=B,FG]2 |[M:9/8] G2- [FG]- [FG] G2- G z z | %24
[M:4/4] c2 [FA]>[EG] F2 C>C | D2 [DB]2 [CA]4 | [Fc]<[Fc] [CF]>[DFB] [CFA]2 [B,EG]2 | %27
[M:7/8] [F,A,CF]-[F,A,CF]-[F,A,CF]- [F,A,CF]3 z |] %28
V:2
 z3 z2 C | z z/[K:treble] D/E .F3 | [B,,G,B,]6 | [C,G,B,]3 [C,E,B,]3 |[M:5/8] F,,-F,,- F,,3 | %5
[M:1/8] C |[M:3/4] z z/ D/ .E2 B,C | [B,,F,B,]3 [B,,F,]3 | C>B, A, [C,E,B,]3 | %9
[M:5/8] [F,,F,]-[F,,F,]- [F,,F,]3 |[M:1/8] z |[M:3/4] [C,E,C]6 | [F,,F,]6 | [B,,F,B,]4 z _A | %14
[M:5/8] [A,,E,A,]-[A,,E,A,]- [A,,E,A,]3 |[M:1/8] C |[M:3/4] z z/[K:treble] D/ EF B,C | %17
 [B,,F,B,]4 z[K:treble] B | z z/ B,/ A, B,2 B, | F,C, A,, F,,3 | %20
[M:4/4] [F,A,C]<[F,A,C] [A,,F,]>[A,,F,] [B,,F,B,]2 [B,,F,]2 | [F,,F,]6 z2 | %22
 [F,A,F]<[F,A,F] C,>C, D,2 z A |[M:9/8] C,2 [D,=B,]- [D,B,] [E,_B,]2- [E,B,] z z | %24
[M:4/4] [F,A,F]2 [C,C]>[C,B,] [D,A,D]2 [A,,F,]>[A,,F,] | [B,,F,B,]2 [B,,F,]2 [F,,F,]4 | %26
 [F,A,]<[F,A,] A,,>B,, C,2 C,2 |[M:7/8] F,,-F,,-F,,- F,,3 z |] %28
V:3
 x6 | [F,A,]6[K:treble] | x6 | x5[K:bass] x |[M:5/8] x5 |[M:1/8] x |[M:3/4] [F,A,]4[K:treble] z2 | %7
 z2 z D3 | x6 |[M:5/8] x5 |[M:1/8] x |[M:3/4] x6 | A,6 | x6 |[M:5/8] x5 |[M:1/8] x | %16
[M:3/4][K:bass] [F,-A,]4 F,2[K:treble] | x6 | x6 | z2 z F,3 |[M:4/4] x8 | C2 z2 z4 | x8 | %23
[M:9/8] .[CE]3 z3 z3 |[M:4/4] x8 | x8 | x8 |[M:7/8] x7 |] %28
V:4
 x6 | F,,6[K:treble] | x6 | x6 |[M:5/8] x5 |[M:1/8] x |[M:3/4] F,,3 [F,,F,]3 | x6 | C,4 z2 | %9
[M:5/8] x5 |[M:1/8] x |[M:3/4] x6 | x6 | z2 z B,,3 |[M:5/8] x5 |[M:1/8] x |[M:3/4] F,,6[K:treble] | %17
 z2 z [B,,F,]3[K:treble] | C,3 [C,E,]3 | x6 |[M:4/4] x8 | x8 | z4 z2 G,,2 |[M:9/8] x9 |[M:4/4] x8 | %25
 x8 | x8 |[M:7/8] x7 |] %28

